images/ICONOS/CEGID/CAPACTIACION ICON.svg

<svg width="38" height="37" viewBox="0 0 38 37" fill="none" xmlns="http://www.w3.org/2000/svg">
<path d="M0 31.5266C0.227556 31.2466 0.528359 31.1776 0.874088 31.2077C1.07625 31.2252 1.28232 31.2106 1.52648 31.2106C1.52648 31.0104 1.52648 30.8567 1.52648 30.7022C1.52648 24.372 1.5255 18.0409 1.52746 11.7107C1.52746 10.3671 2.25505 9.36763 3.47291 9.04874C3.74051 8.97874 4.02569 8.96415 4.30501 8.95054C4.6566 8.93401 5.01014 8.94665 5.34903 8.94665C5.3041 8.55387 5.20742 8.18443 5.23281 7.82276C5.29043 6.98276 5.74066 6.37706 6.48779 5.98428C8.43813 4.95761 10.3865 3.92705 12.3359 2.89941C13.8545 2.09829 15.3761 1.30204 16.8919 0.496061C18.1146 -0.154358 19.3374 -0.167969 20.565 0.471756C21.0191 0.708007 21.4723 0.94523 21.9206 1.19023C22.2663 1.37884 22.3747 1.68509 22.2145 1.97482C22.0641 2.24801 21.7565 2.32676 21.4215 2.1576C20.943 1.91648 20.4742 1.6569 19.9966 1.41287C19.1674 0.98898 18.3295 0.98023 17.5052 1.41384C13.9913 3.26107 10.4812 5.11511 6.96927 6.96623C6.55713 7.18401 6.31687 7.51942 6.31492 7.98512C6.31297 8.44887 6.5415 8.7911 6.95657 9.00985C10.4793 10.8668 13.9991 12.7276 17.5247 14.5807C18.309 14.9929 19.1196 15.0095 19.9146 14.6079C20.8053 14.1588 21.6823 13.6843 22.6052 13.2011C22.1745 12.7101 21.7692 12.2464 21.3619 11.7836C20.4126 10.7054 19.4624 9.62818 18.5121 8.55096C18.4721 8.50526 18.4311 8.46054 18.393 8.4129C18.1488 8.11054 18.1537 7.77998 18.4057 7.57387C18.6469 7.37748 18.9672 7.4154 19.2143 7.69054C19.7827 8.3254 20.3414 8.96804 20.9049 9.60777C21.7975 10.6208 22.6902 11.6329 23.6023 12.6683C24.0975 12.4097 24.5809 12.1599 25.0624 11.9051C26.8389 10.9669 28.6125 10.021 30.3948 9.09346C30.8656 8.84846 31.1927 8.52374 31.1869 7.97346C31.181 7.43776 30.849 7.12373 30.3958 6.88748C28.1085 5.68969 25.8261 4.48316 23.5428 3.27955C23.1502 3.07246 23.0173 2.76232 23.1853 2.45801C23.3445 2.17024 23.6678 2.10996 24.0487 2.31024C26.3662 3.52941 28.6847 4.74566 30.9974 5.97358C32.103 6.55984 32.5053 7.56609 32.1459 8.76874C32.1323 8.81443 32.1235 8.8611 32.102 8.94763C32.4614 8.94763 32.8003 8.94665 33.1402 8.94763C34.8903 8.95151 35.9753 10.0249 35.9753 11.7632C35.9773 18.0691 35.9763 24.3759 35.9763 30.6817C35.9763 30.8383 35.9763 30.9958 35.9763 31.2116C36.2146 31.2116 36.4295 31.2116 36.6443 31.2116C37.3709 31.2126 37.5204 31.3429 37.4979 32.0526C37.4784 32.668 37.495 33.3019 37.3534 33.894C36.994 35.3932 35.6648 36.4227 34.1187 36.4976C33.9849 36.5044 33.8502 36.5093 33.7164 36.5093C23.7439 36.5102 13.7725 36.5064 3.80009 36.5132C2.28435 36.5141 1.13094 35.9152 0.40628 34.5833C0.212906 34.2275 0.132822 33.8113 0.000976635 33.4225C0 32.7905 0 32.1586 0 31.5266ZM2.62617 31.1844C13.4043 31.1844 24.1278 31.1844 34.862 31.1844C34.8678 31.0619 34.8766 30.9656 34.8766 30.8694C34.8776 24.4653 34.8786 18.0613 34.8756 11.6572C34.8756 10.6656 34.2506 10.0521 33.2466 10.0433C32.563 10.0365 31.8793 10.0414 31.1957 10.0433C31.099 10.0433 30.9886 10.0317 30.9085 10.0725C30.0481 10.5139 29.1916 10.966 28.3341 11.4142C28.34 11.4424 28.3458 11.4715 28.3517 11.4997C28.4787 11.4997 28.6066 11.4997 28.7336 11.4997C30.0276 11.4997 31.3217 11.4987 32.6157 11.4997C33.2622 11.5007 33.4107 11.6494 33.4107 12.296C33.4107 17.8493 33.4107 23.4027 33.4107 28.957C33.4107 29.6016 33.2603 29.7533 32.6137 29.7533C25.0692 29.7542 17.5257 29.7533 9.98121 29.7523C9.86011 29.7523 9.7351 29.7533 9.6179 29.727C9.32686 29.6619 9.17451 29.4606 9.19013 29.1738C9.20576 28.889 9.37374 28.7013 9.67357 28.6712C9.81909 28.6566 9.96656 28.6605 10.1121 28.6605C17.3509 28.6605 24.5897 28.6605 31.8285 28.6605C31.9809 28.6605 32.1342 28.6605 32.2797 28.6605C32.2797 23.2744 32.2797 17.9485 32.2797 12.6158C30.6429 12.6158 29.0363 12.6158 27.3936 12.6158C27.3936 13.2176 27.3907 13.7971 27.3936 14.3775C27.4054 16.7138 26.377 18.3977 24.2342 19.3874C24.1551 19.4243 24.035 19.5031 24.036 19.5595C24.0477 19.9629 23.9324 20.3742 24.1786 20.7631C24.5233 21.3066 24.8397 21.8695 25.1474 22.4343C25.5048 23.0906 25.4072 23.8246 24.9188 24.3613C24.5057 24.8153 23.9725 24.9067 23.3875 24.8989C21.8971 24.8795 21.1393 23.5787 21.8786 22.2856C22.1618 21.7898 22.4733 21.3075 22.7273 20.7971C22.862 20.5259 22.8992 20.208 22.9978 19.8482C22.78 19.8988 22.6853 19.9173 22.5915 19.9425C19.6938 20.7242 16.8372 20.59 13.9835 19.6654C11.2147 18.7691 9.98316 16.5504 10.0984 14.2735C10.1258 13.73 10.1023 13.1846 10.1023 12.6168C8.45473 12.6168 6.8384 12.6168 5.20839 12.6168C5.20839 17.965 5.20839 23.2928 5.20839 28.6595C5.3627 28.6595 5.49357 28.6595 5.62542 28.6595C6.26023 28.6605 6.89504 28.6527 7.52986 28.6683C7.86875 28.677 8.0631 28.886 8.06798 29.1913C8.07384 29.4937 7.88144 29.7027 7.55329 29.7455C7.48102 29.7552 7.4068 29.7533 7.33355 29.7533C6.50341 29.7533 5.67327 29.7552 4.84313 29.7533C4.24836 29.7513 4.08722 29.588 4.08722 28.991C4.08624 23.4134 4.08624 17.8357 4.08722 12.2571C4.08722 11.6611 4.24739 11.5017 4.84802 11.5007C6.15378 11.4987 7.46051 11.4997 8.76628 11.4997C8.89226 11.4997 9.01922 11.4997 9.14521 11.4997C8.91961 11.2907 8.66373 11.1818 8.4391 11.0272C7.2271 10.1921 5.90083 9.94124 4.43197 10.0132C3.34204 10.0667 2.60078 10.6821 2.60664 11.839C2.63691 18.1342 2.62129 24.4284 2.62129 30.7236C2.62617 30.8684 2.62617 31.0123 2.62617 31.1844ZM36.3679 32.3209C36.2878 32.3151 36.2273 32.3063 36.1667 32.3063C31.9682 32.3054 27.7706 32.3073 23.5721 32.3005C23.3435 32.3005 23.2664 32.3841 23.2 32.5912C22.8591 33.647 21.9684 34.3597 20.8697 34.3869C19.4555 34.4219 18.0384 34.4209 16.6233 34.3859C15.5529 34.3597 14.6564 33.6606 14.3253 32.6505C14.2384 32.3851 14.13 32.2976 13.8467 32.2976C9.72142 32.3073 5.5971 32.3044 1.47179 32.3054C1.35459 32.3054 1.23837 32.319 1.12801 32.3258C0.851626 34.2547 2.19352 35.4359 3.83427 35.4311C13.7803 35.4 23.7264 35.4155 33.6724 35.4126C33.9508 35.4126 34.2389 35.4058 34.5074 35.3416C35.8405 35.0247 36.5662 33.8473 36.3679 32.3209ZM11.2069 12.4885C11.2069 13.2828 11.1825 14.012 11.2118 14.7392C11.2792 16.391 12.0439 17.65 13.5684 18.3063C16.5354 19.5838 19.5913 19.6985 22.6892 18.7807C22.9128 18.7146 22.9304 18.597 22.9294 18.4113C22.9246 17.2689 22.9265 16.1265 22.9265 14.9842C22.9265 14.7693 22.9265 14.5545 22.9265 14.289C22.7634 14.3649 22.6443 14.4145 22.531 14.4747C21.8629 14.8257 21.1979 15.1845 20.5269 15.5306C19.3628 16.1314 18.1888 16.146 17.0179 15.55C16.3664 15.2185 15.7248 14.8704 15.0783 14.5292C13.8086 13.8603 12.54 13.1914 11.2069 12.4885ZM26.2256 12.5303C25.8027 12.7529 25.3837 13.0397 24.9208 13.2011C24.1717 13.4617 23.9539 13.9196 24.0057 14.6964C24.0838 15.866 24.0262 17.0434 24.0262 18.2168C24.077 18.2197 24.1033 18.2295 24.1219 18.2207C24.1883 18.1916 24.2547 18.1595 24.3172 18.1225C25.3534 17.4954 26.0605 16.599 26.2041 15.4032C26.3145 14.4718 26.2256 13.5161 26.2256 12.5303ZM22.1345 32.3306C19.856 32.3306 17.6331 32.3306 15.3703 32.3306C15.6232 32.8965 16.0119 33.2669 16.593 33.2805C18.0306 33.3136 19.4692 33.3126 20.9068 33.2815C21.4909 33.2688 21.8766 32.8974 22.1345 32.3306ZM23.4783 21.7198C23.2468 22.1184 23.0378 22.4732 22.8347 22.831C22.5232 23.3803 22.7615 23.7945 23.3894 23.8003C23.4988 23.8013 23.6092 23.8062 23.7186 23.7974C24.1463 23.7624 24.3934 23.3706 24.2 22.9856C23.9881 22.5656 23.7352 22.167 23.4783 21.7198Z" fill="#279D98"/>
<path d="M12.8916 26.1065C14.6251 26.1065 16.3587 26.1065 18.0922 26.1074C18.226 26.1074 18.3637 26.1016 18.4936 26.1298C18.7485 26.1862 18.937 26.366 18.8911 26.6149C18.8549 26.8094 18.6987 27.0058 18.5444 27.1448C18.4565 27.2226 18.2651 27.1983 18.1195 27.1983C14.6164 27.2002 11.1122 27.2002 7.609 27.1983C7.46446 27.1983 7.27206 27.2206 7.18514 27.1419C7.03083 27.0009 6.83843 26.7831 6.85211 26.611C6.8648 26.4399 7.09138 26.2601 7.26132 26.1356C7.35117 26.0695 7.5211 26.1084 7.65588 26.1074C9.40015 26.1065 11.1464 26.1065 12.8916 26.1065Z" fill="#279D98"/>
<path d="M11.0252 24.8941C9.85518 24.8941 8.68517 24.8951 7.51614 24.8931C7.08446 24.8921 6.83249 24.6977 6.82175 24.3662C6.81003 24.022 7.07567 23.8013 7.52004 23.8013C9.87178 23.7994 12.2235 23.7994 14.5753 23.8013C15.0099 23.8013 15.255 23.9958 15.2648 24.3331C15.2745 24.6889 15.0274 24.8931 14.5723 24.8931C13.3886 24.8951 12.2069 24.8941 11.0252 24.8941Z" fill="#279D98"/>
</svg>

<svg width="38" height="37" fill="none" xmlns="http://www.w3.org/2000/svg"><path d="M0 31.527c.228-.28.528-.35.874-.32.202.018.408.004.652.004v-.509l.001-18.991c0-1.344.728-2.343 1.946-2.662.268-.07.553-.085.832-.098.352-.017.705-.004 1.044-.004-.045-.393-.142-.763-.116-1.124.057-.84.508-1.446 1.255-1.839 1.95-1.026 3.898-2.057 5.848-3.085 1.518-.8 3.04-1.597 4.556-2.403 1.223-.65 2.445-.664 3.673-.024.454.236.907.473 1.356.718.345.189.454.495.294.785-.15.273-.459.352-.793.183-.479-.242-.948-.501-1.425-.745-.83-.424-1.668-.433-2.492 0-3.514 1.848-7.024 3.702-10.536 5.553-.412.218-.652.553-.654 1.02-.002.463.226.805.642 1.024 3.522 1.857 7.042 3.718 10.568 5.57.784.413 1.595.43 2.39.028.89-.45 1.767-.924 2.69-1.407-.43-.49-.836-.955-1.243-1.417l-2.85-3.233c-.04-.046-.08-.09-.119-.138-.244-.302-.24-.633.013-.84.24-.196.561-.158.808.118.569.634 1.127 1.277 1.69 1.917l2.698 3.06c.495-.258.979-.508 1.46-.763 1.777-.938 3.55-1.884 5.333-2.812.47-.245.798-.57.792-1.12-.006-.535-.338-.85-.791-1.086-2.288-1.197-4.57-2.404-6.853-3.607-.393-.208-.526-.518-.358-.822.16-.288.483-.348.864-.148 2.317 1.22 4.636 2.436 6.948 3.664 1.106.586 1.508 1.592 1.149 2.795-.014.045-.023.092-.044.179h1.038c1.75.004 2.835 1.077 2.835 2.815.002 6.306.001 12.613.001 18.919v.53h.668c.727 0 .876.13.854.84-.02.616-.003 1.25-.145 1.842-.359 1.5-1.688 2.529-3.234 2.604a7.945 7.945 0 0 1-.403.011c-9.972.001-19.944-.003-29.916.004-1.516.001-2.67-.598-3.394-1.93-.193-.355-.273-.772-.405-1.16L0 31.526Zm2.626-.343h32.236c.006-.122.015-.218.015-.315 0-6.404.002-12.808-.001-19.212 0-.991-.625-1.605-1.63-1.614-.683-.006-1.367-.002-2.05 0-.097 0-.207-.011-.288.03-.86.44-1.716.893-2.574 1.341l.018.086h4.264c.646 0 .795.15.795.796v16.661c0 .645-.15.796-.797.796H9.98c-.12 0-.246 0-.363-.026-.291-.065-.443-.266-.428-.553.016-.285.184-.473.484-.503.145-.014.293-.01.438-.01H32.28V12.615h-4.886c0 .602-.003 1.181 0 1.761.011 2.337-1.017 4.02-3.16 5.01-.079.037-.199.116-.198.172.012.404-.104.815.143 1.204.344.544.66 1.106.968 1.671a1.63 1.63 0 0 1-.228 1.927c-.413.454-.947.546-1.532.538-1.49-.02-2.248-1.32-1.508-2.613.283-.496.594-.979.848-1.489.135-.271.172-.589.27-.949-.217.05-.312.07-.405.095-2.898.781-5.755.647-8.608-.278-2.77-.896-4-3.115-3.886-5.391.028-.544.004-1.09.004-1.657H5.208V28.66h.417c.635 0 1.27-.007 1.905.008.339.009.533.218.538.523.006.303-.187.512-.515.555-.072.01-.146.007-.22.007-.83 0-1.66.002-2.49 0-.595-.002-.756-.165-.756-.762V12.257c0-.596.16-.755.761-.756 1.306-.002 2.613-.001 3.918-.001h.38c-.226-.21-.482-.318-.707-.473-1.212-.835-2.538-1.086-4.007-1.014-1.09.054-1.831.67-1.825 1.826.03 6.295.014 12.59.014 18.885.005.144.005.288.005.46Zm33.742 1.137c-.08-.006-.14-.015-.201-.015-4.199 0-8.396.001-12.595-.005-.229 0-.306.083-.372.29-.34 1.056-1.232 1.769-2.33 1.796a85.88 85.88 0 0 1-4.247-.001c-1.07-.026-1.967-.725-2.298-1.736-.087-.265-.195-.352-.478-.352-4.126.01-8.25.006-12.375.007-.117 0-.234.014-.344.02-.276 1.93 1.066 3.11 2.706 3.106 9.946-.031 19.892-.015 29.838-.018.279 0 .567-.007.835-.071 1.334-.317 2.06-1.495 1.86-3.021ZM11.207 12.489c0 .794-.025 1.523.005 2.25.067 1.652.832 2.911 2.356 3.567 2.967 1.278 6.023 1.392 9.121.475.224-.066.241-.184.24-.37-.004-1.142-.002-2.285-.002-3.427v-.695c-.164.076-.283.126-.396.186-.668.35-1.333.71-2.004 1.056-1.164.6-2.338.615-3.51.019-.65-.332-1.292-.68-1.939-1.02l-3.871-2.041Zm15.019.041c-.423.223-.842.51-1.305.671-.75.26-.967.719-.915 1.495.078 1.17.02 2.347.02 3.52.051.004.077.014.096.005a1.81 1.81 0 0 0 .195-.099c1.036-.627 1.744-1.523 1.887-2.719.11-.931.022-1.887.022-2.873Zm-4.091 19.8H15.37c.253.567.642.937 1.223.95 1.438.034 2.876.033 4.314.002.584-.013.97-.385 1.227-.951Zm1.343-10.61c-.231.398-.44.753-.643 1.111-.312.55-.073.963.554.97.11 0 .22.005.33-.004.427-.035.674-.426.481-.811-.212-.42-.465-.819-.722-1.266Z" fill="#279D98"/><path d="M12.892 26.107h5.2c.134 0 .272-.005.402.023.255.056.443.236.397.485-.036.194-.192.39-.347.53-.088.078-.279.053-.425.053-3.503.002-7.007.002-10.51 0-.145 0-.337.023-.424-.056-.154-.141-.347-.359-.333-.531.013-.171.24-.35.41-.475.09-.066.26-.028.394-.029h5.236ZM11.025 24.894H7.516c-.432-.002-.684-.196-.694-.528-.012-.344.254-.565.698-.565 2.352-.002 4.704-.002 7.055 0 .435 0 .68.195.69.532.01.356-.238.56-.693.56-1.183.002-2.365.001-3.547.001Z" fill="#279D98"/></svg>
